assets/imgs/title.svg

<svg viewBox="0 0 837.78 49.65" xmlns="http://www.w3.org/2000/svg"><g fill="#252d65"><path d="m35.45 48.83-6.58-18.52-6.51 18.52h-8.71l-13.65-48.01h10.29l9.25 35.32 5.56-15.64-7.61-19.68h8.77l2.74 8.92 2.82-8.92h8.43l-7.33 19.18 5.76 16.12 9.12-35.3h9.94l-13.58 48z"/><path d="m91.27 48.69-1.64.31c-.64.11-1.44.21-2.4.31s-2.11.17-3.43.24-2.88.1-4.66.1a35.67 35.67 0 0 1 -8.47-.93 18.09 18.09 0 0 1 -6.59-3 13.4 13.4 0 0 1 -4.28-5.42 20 20 0 0 1 -1.51-8.23 16 16 0 0 1 1.3-6.34 16.66 16.66 0 0 1 3.67-5.38 18 18 0 0 1 5.66-3.74 18.44 18.44 0 0 1 7.34-1.41 18.91 18.91 0 0 1 5.86.9 13.37 13.37 0 0 1 4.88 2.76 13.1 13.1 0 0 1 3.32 4.7 16.92 16.92 0 0 1 1.24 6.82v1.44c0 .55 0 1.07-.07 1.58h-24.42a9.73 9.73 0 0 0 1.16 4.18 7.1 7.1 0 0 0 2.61 2.61 11.44 11.44 0 0 0 4 1.33 32.9 32.9 0 0 0 5.16.38 68.07 68.07 0 0 0 7.27-.31 25 25 0 0 0 4-.65zm-9.12-21.33a5.47 5.47 0 0 0 -1.5-3.87 6 6 0 0 0 -4.6-1.61 8.6 8.6 0 0 0 -5.14 1.47 8.5 8.5 0 0 0 -3 4z"/><path d="m151.69 32.5a22.09 22.09 0 0 1 -1.17 7.55 13.43 13.43 0 0 1 -8.52 8.54 20.92 20.92 0 0 1 -6.83 1.06 17.28 17.28 0 0 1 -7.17-1.41 15.18 15.18 0 0 1 -5.31-3.84 16.65 16.65 0 0 1 -3.3-5.79 22.75 22.75 0 0 1 -1.13-7.27 18.85 18.85 0 0 1 1.13-6.69 14.46 14.46 0 0 1 3.19-5.07 13.93 13.93 0 0 1 4.91-3.22 16.88 16.88 0 0 1 6.34-1.14 12.12 12.12 0 0 1 9.6 4v-3.17h8.23zm-16.46 9.81a6.87 6.87 0 0 0 5.56-2.47q2.06-2.46 2.05-7.4t-2.05-7.44a7.48 7.48 0 0 0 -11.11 0q-2.06 2.47-2.06 7.41t2.06 7.4a6.83 6.83 0 0 0 5.55 2.5z"/><path d="m161.29 48.83v-18.83q0-7.07 4.32-10.94t12-3.88h1.92s1 .06 1.48.1.85.1 1.26.17.87.13 1.38.17v7.38c-.83-.13-1.7-.25-2.61-.34s-1.74-.14-2.47-.14a8.7 8.7 0 0 0 -5.83 1.82 6.68 6.68 0 0 0 -2.12 5.38v19.11z"/><path d="m221.36 48.69-1.64.31c-.64.11-1.44.21-2.4.31s-2.11.17-3.43.24-2.88.1-4.67.1a35.73 35.73 0 0 1 -8.47-.93 18 18 0 0 1 -6.58-3 13.4 13.4 0 0 1 -4.28-5.42 20 20 0 0 1 -1.51-8.23 16 16 0 0 1 1.3-6.34 16.66 16.66 0 0 1 3.67-5.38 18 18 0 0 1 5.65-3.72 18.43 18.43 0 0 1 7.33-1.41 18.93 18.93 0 0 1 5.87.9 13.37 13.37 0 0 1 4.87 2.74 13.1 13.1 0 0 1 3.32 4.7 17.1 17.1 0 0 1 1.24 6.82v1.44c0 .55 0 1.07-.07 1.58h-24.41a9.87 9.87 0 0 0 1.17 4.18 7.1 7.1 0 0 0 2.61 2.61 11.39 11.39 0 0 0 4 1.33 33.12 33.12 0 0 0 5.22.38 67.74 67.74 0 0 0 7.26-.31 25.18 25.18 0 0 0 4-.65zm-9.12-21.33a5.43 5.43 0 0 0 -1.51-3.87 6 6 0 0 0 -4.59-1.61 8.66 8.66 0 0 0 -5.14 1.47 8.48 8.48 0 0 0 -3 4z"/><path d="m277.18 48.83-19.13-31.69v31.69h-8.78v-48.01h9.88l17.42 29.42v-29.42h8.57v48z"/><path d="m294.88 48.83v-48.01h9.73v48z"/><path d="m324.7 48.83v-39.83h-13.3v-8.18h36.35v8.18h-13.31v39.83z"/><path d="m382.24 48.83-19.13-31.69v31.69h-8.78v-48.01h9.87l17.42 29.42v-29.42h8.57v48z"/><path d="m432.85 48.83c-1.1.22-2.37.42-3.81.58a39.36 39.36 0 0 1 -4.35.24 38.13 38.13 0 0 1 -10.08-1.3 22.38 22.38 0 0 1 -8.23-4.12 19.39 19.39 0 0 1 -5.52-7.23 26.07 26.07 0 0 1 -2-10.83 30.16 30.16 0 0 1 2-11.56 22.91 22.91 0 0 1 5.52-8.16 22.23 22.23 0 0 1 8.19-4.83 31.19 31.19 0 0 1 10-1.58 37.76 37.76 0 0 1 4.29.24c1.39.16 2.64.35 3.73.58v8.19a23.93 23.93 0 0 0 -3.15-.65 30.22 30.22 0 0 0 -4.11-.24q-7.83 0-12.21 4.25t-4.39 13.37q0 8.24 4.39 12t12.34 3.74a31.92 31.92 0 0 0 4.19-.24 23.75 23.75 0 0 0 3.22-.65z"/><path d="m458.84 40.6a30.45 30.45 0 0 0 4.9.75q2.72.21 5.8.21 6.65 0 10-1.48a5.37 5.37 0 0 0 3.36-5.38 4.15 4.15 0 0 0 -1-2.81 9.46 9.46 0 0 0 -2.57-2.06 26.29 26.29 0 0 0 -3.77-1.64l-4.39-1.58q-2.26-.83-4.42-1.82a18.53 18.53 0 0 1 -3.88-2.37 12.13 12.13 0 0 1 -3-3.56 10.16 10.16 0 0 1 -1.13-4.94 11.75 11.75 0 0 1 1.61-6.21 13.15 13.15 0 0 1 4.42-4.35 21.41 21.41 0 0 1 6.62-2.54 38.12 38.12 0 0 1 8.16-.82c1.6 0 3.16.06 4.7.17a37.19 37.19 0 0 1 4.62.65v8.18a45.28 45.28 0 0 0 -9-.89 26.57 26.57 0 0 0 -8.87 1.18c-2.19.8-3.29 2.19-3.29 4.15a3.6 3.6 0 0 0 1.51 3 18.35 18.35 0 0 0 3.84 2.19c1.1.51 2.27 1 3.5 1.44s2.49.95 3.77 1.48 2.51 1.1 3.7 1.71a26 26 0 0 1 3.36 2.09 12.43 12.43 0 0 1 3.47 3.95 11.46 11.46 0 0 1 1.27 5.59 12.63 12.63 0 0 1 -2.13 7.66 14.36 14.36 0 0 1 -5.45 4.45 23.37 23.37 0 0 1 -7.26 2.09 58.91 58.91 0 0 1 -7.69.52c-1.73 0-3.56-.06-5.48-.17a39.68 39.68 0 0 1 -5.28-.65z"/><path d="m531.12 48.83-6.59-18.52-6.53 18.52h-8.71l-13.63-48.01h10.34l9.26 35.32 5.55-15.64-7.66-19.68h8.78l2.74 8.92 2.81-8.92h8.44l-7.34 19.18 5.76 16.12 9.12-35.3h9.94l-13.57 48z"/><path d="m559.85 48.83v-48.01h9.74v48z"/><path d="m613 48.83v-31.69l-12.35 23.32-12.2-23.32v31.69h-9.06v-48.01h10.29l11.11 21.47 11.11-21.47h9.94v48z"/><path d="m665.11 48.83v-31.69l-12.34 23.32-12.21-23.32v31.69h-9v-48.01h10.24l11.11 21.47 11.09-21.47h10v48z"/><path d="m683.76 48.83v-48.01h32v8.18h-22.26v5.7h21.6v7.74h-21.6v18.23h22.36v8.16z"/><path d="m748.43 48.83c-.14-2.47-.34-4.64-.62-6.52a33.94 33.94 0 0 0 -1-4.9 17.91 17.91 0 0 0 -1.47-3.64 15.59 15.59 0 0 0 -1.98-2.77h-1.17a18.32 18.32 0 0 1 -4.7-.55 12.92 12.92 0 0 1 -3.49-1.51v19.89h-9.74v-31.75a23.15 23.15 0 0 1 1-6.83 13.72 13.72 0 0 1 3.06-5.38 14.29 14.29 0 0 1 5.41-3.57 22.57 22.57 0 0 1 8.05-1.3 21.42 21.42 0 0 1 6.58 1 15.83 15.83 0 0 1 5.39 3 13.67 13.67 0 0 1 3.6 4.87 16.78 16.78 0 0 1 1.3 6.83 14.57 14.57 0 0 1 -2 7.3 15.21 15.21 0 0 1 -5.45 5.59 20.42 20.42 0 0 1 2.33 2.26 12.84 12.84 0 0 1 2.13 3.57 29.76 29.76 0 0 1 1.65 5.72 65.57 65.57 0 0 1 1 8.75zm-14.43-28.83a10.31 10.31 0 0 0 8.23 4 6.45 6.45 0 0 0 5.28-2.33 9.18 9.18 0 0 0 1.92-6q0-4.26-2.09-6.24a7.3 7.3 0 0 0 -5.25-2 7.7 7.7 0 0 0 -6 2.29c-1.42 1.54-2.13 4-2.13 7.38z"/><path d="m765.37 40.6a30.45 30.45 0 0 0 4.9.75q2.72.21 5.8.21 6.64 0 10-1.48a5.37 5.37 0 0 0 3.36-5.38 4.15 4.15 0 0 0 -1-2.81 9.46 9.46 0 0 0 -2.57-2.06 26.29 26.29 0 0 0 -3.77-1.64l-4.39-1.58q-2.26-.83-4.42-1.82a18.53 18.53 0 0 1 -3.88-2.37 12.13 12.13 0 0 1 -3-3.56 10.16 10.16 0 0 1 -1.13-4.94 11.75 11.75 0 0 1 1.61-6.21 13.15 13.15 0 0 1 4.42-4.35 21.41 21.41 0 0 1 6.62-2.54 38.12 38.12 0 0 1 8.16-.82c1.6 0 3.16.06 4.7.17a37.19 37.19 0 0 1 4.62.65v8.18a45.28 45.28 0 0 0 -9-.89 26.47 26.47 0 0 0 -8.84 1.2c-2.2.8-3.3 2.19-3.3 4.15a3.6 3.6 0 0 0 1.51 3 18.35 18.35 0 0 0 3.84 2.19c1.1.51 2.27 1 3.5 1.44s2.49.95 3.77 1.48 2.52 1.1 3.7 1.71a26 26 0 0 1 3.42 2.02 12.43 12.43 0 0 1 3.47 3.95 11.46 11.46 0 0 1 1.27 5.59 12.63 12.63 0 0 1 -2.16 7.71 14.36 14.36 0 0 1 -5.5 4.45 23.37 23.37 0 0 1 -7.26 2.09 58.87 58.87 0 0 1 -7.68.52c-1.74 0-3.57-.06-5.49-.17a39.68 39.68 0 0 1 -5.28-.65z"/><path d="m811.79 49.65a4.73 4.73 0 0 1 -3.79-1.65 6.06 6.06 0 0 1 -1.44-4.08 5.79 5.79 0 0 1 1.44-4 4.88 4.88 0 0 1 3.84-1.61 4.79 4.79 0 0 1 3.77 1.61 5.79 5.79 0 0 1 1.44 4 6.06 6.06 0 0 1 -1.42 4.08 4.8 4.8 0 0 1 -3.84 1.65zm-4.87-16.12v-32.71h9.74v32.71z"/><path d="m832.5 49.65a4.73 4.73 0 0 1 -3.77-1.65 6.06 6.06 0 0 1 -1.44-4.08 5.79 5.79 0 0 1 1.44-4 4.88 4.88 0 0 1 3.84-1.61 4.79 4.79 0 0 1 3.77 1.61 5.79 5.79 0 0 1 1.44 4 6.06 6.06 0 0 1 -1.44 4.08 4.8 4.8 0 0 1 -3.84 1.65zm-4.87-16.12v-32.71h9.74v32.71z"/></g></svg>

<svg xmlns="http://www.w3.org/2000/svg" viewBox="0 0 837.78 49.65"><defs><style>.cls-1{fill:#252d65;}</style></defs><title>title</title><g id="レイヤー_2" data-name="レイヤー 2"><g id="レイヤー_1-2" data-name="レイヤー 1"><path class="cls-1" d="M35.45,48.83,28.87,30.31,22.36,48.83H13.65L0,.82H10.29l9.25,35.32L25.1,20.5,17.49.82h8.77L29,9.74,31.82.82h8.43L32.92,20l5.76,16.12L47.8.82h9.94l-13.58,48Z"/><path class="cls-1" d="M91.27,48.69,89.63,49c-.64.11-1.44.21-2.4.31s-2.11.17-3.43.24-2.88.1-4.66.1a35.67,35.67,0,0,1-8.47-.93,18.09,18.09,0,0,1-6.59-3,13.4,13.4,0,0,1-4.28-5.42,20,20,0,0,1-1.51-8.23,16,16,0,0,1,1.3-6.34,16.66,16.66,0,0,1,3.67-5.38,18,18,0,0,1,5.66-3.74,18.44,18.44,0,0,1,7.34-1.41,18.91,18.91,0,0,1,5.86.9A13.37,13.37,0,0,1,87,18.86a13.1,13.1,0,0,1,3.32,4.7,16.92,16.92,0,0,1,1.24,6.82v1.44c0,.55,0,1.07-.07,1.58H67.07a9.73,9.73,0,0,0,1.16,4.18,7.1,7.1,0,0,0,2.61,2.61,11.44,11.44,0,0,0,4,1.33A32.9,32.9,0,0,0,80,41.9a68.07,68.07,0,0,0,7.27-.31,25,25,0,0,0,4-.65ZM82.15,27.36a5.47,5.47,0,0,0-1.5-3.87,6,6,0,0,0-4.6-1.61,8.6,8.6,0,0,0-5.14,1.47,8.5,8.5,0,0,0-3,4Z"/><path class="cls-1" d="M151.69,32.5a22.09,22.09,0,0,1-1.17,7.55A13.43,13.43,0,0,1,142,48.59a20.92,20.92,0,0,1-6.83,1.06A17.28,17.28,0,0,1,128,48.24a15.18,15.18,0,0,1-5.31-3.84,16.65,16.65,0,0,1-3.3-5.79,22.75,22.75,0,0,1-1.13-7.27,18.85,18.85,0,0,1,1.13-6.69,14.46,14.46,0,0,1,3.19-5.07,13.93,13.93,0,0,1,4.91-3.22,16.88,16.88,0,0,1,6.34-1.14,12.12,12.12,0,0,1,9.6,4V16.05h8.23Zm-16.46,9.81a6.87,6.87,0,0,0,5.56-2.47q2.06-2.46,2.05-7.4T140.79,25a7.48,7.48,0,0,0-11.11,0q-2.06,2.47-2.06,7.41t2.06,7.4A6.83,6.83,0,0,0,135.23,42.31Z"/><path class="cls-1" d="M161.29,48.83V30q0-7.07,4.32-10.94t12-3.88c.73,0,1.37,0,1.92,0s1,.06,1.48.1.85.1,1.26.17.87.13,1.38.17V23c-.83-.13-1.7-.25-2.61-.34s-1.74-.14-2.47-.14a8.7,8.7,0,0,0-5.83,1.82,6.68,6.68,0,0,0-2.12,5.38V48.83Z"/><path class="cls-1" d="M221.36,48.69l-1.64.31c-.64.11-1.44.21-2.4.31s-2.11.17-3.43.24-2.88.1-4.67.1a35.73,35.73,0,0,1-8.47-.93,18,18,0,0,1-6.58-3,13.4,13.4,0,0,1-4.28-5.42,20,20,0,0,1-1.51-8.23,16,16,0,0,1,1.3-6.34,16.66,16.66,0,0,1,3.67-5.38A18,18,0,0,1,199,16.63a18.43,18.43,0,0,1,7.33-1.41,18.93,18.93,0,0,1,5.87.9,13.37,13.37,0,0,1,4.87,2.74,13.1,13.1,0,0,1,3.32,4.7,17.1,17.1,0,0,1,1.24,6.82v1.44c0,.55,0,1.07-.07,1.58H197.15a9.87,9.87,0,0,0,1.17,4.18,7.1,7.1,0,0,0,2.61,2.61,11.39,11.39,0,0,0,4,1.33,33.12,33.12,0,0,0,5.22.38,67.74,67.74,0,0,0,7.26-.31,25.18,25.18,0,0,0,4-.65Zm-9.12-21.33a5.43,5.43,0,0,0-1.51-3.87,6,6,0,0,0-4.59-1.61A8.66,8.66,0,0,0,201,23.35a8.48,8.48,0,0,0-3,4Z"/><path class="cls-1" d="M277.18,48.83,258.05,17.14V48.83h-8.78V.82h9.88l17.42,29.42V.82h8.57v48Z"/><path class="cls-1" d="M294.88,48.83V.82h9.73v48Z"/><path class="cls-1" d="M324.7,48.83V9H311.4V.82h36.35V9H334.44V48.83Z"/><path class="cls-1" d="M382.24,48.83,363.11,17.14V48.83h-8.78V.82h9.87l17.42,29.42V.82h8.57v48Z"/><path class="cls-1" d="M432.85,48.83c-1.1.22-2.37.42-3.81.58a39.36,39.36,0,0,1-4.35.24,38.13,38.13,0,0,1-10.08-1.3,22.38,22.38,0,0,1-8.23-4.12A19.39,19.39,0,0,1,400.86,37a26.07,26.07,0,0,1-2-10.83,30.16,30.16,0,0,1,2-11.56,22.91,22.91,0,0,1,5.52-8.16,22.23,22.23,0,0,1,8.19-4.83,31.19,31.19,0,0,1,10-1.58,37.76,37.76,0,0,1,4.29.24c1.39.16,2.64.35,3.73.58V9.05a23.93,23.93,0,0,0-3.15-.65,30.22,30.22,0,0,0-4.11-.24q-7.83,0-12.21,4.25t-4.39,13.37q0,8.24,4.39,12t12.34,3.74a31.92,31.92,0,0,0,4.19-.24,23.75,23.75,0,0,0,3.22-.65Z"/><path class="cls-1" d="M458.84,40.6a30.45,30.45,0,0,0,4.9.75q2.72.21,5.8.21,6.65,0,10-1.48a5.37,5.37,0,0,0,3.36-5.38,4.15,4.15,0,0,0-1-2.81,9.46,9.46,0,0,0-2.57-2.06,26.29,26.29,0,0,0-3.77-1.64l-4.39-1.58q-2.26-.83-4.42-1.82a18.53,18.53,0,0,1-3.88-2.37,12.13,12.13,0,0,1-3-3.56,10.16,10.16,0,0,1-1.13-4.94,11.75,11.75,0,0,1,1.61-6.21,13.15,13.15,0,0,1,4.42-4.35A21.41,21.41,0,0,1,471.39.82,38.12,38.12,0,0,1,479.55,0c1.6,0,3.16.06,4.7.17a37.19,37.19,0,0,1,4.62.65V9a45.28,45.28,0,0,0-9-.89A26.57,26.57,0,0,0,471,9.29c-2.19.8-3.29,2.19-3.29,4.15a3.6,3.6,0,0,0,1.51,3,18.35,18.35,0,0,0,3.84,2.19c1.1.51,2.27,1,3.5,1.44s2.49.95,3.77,1.48,2.51,1.1,3.7,1.71a26,26,0,0,1,3.36,2.09,12.43,12.43,0,0,1,3.47,3.95,11.46,11.46,0,0,1,1.27,5.59A12.63,12.63,0,0,1,490,42.55,14.36,14.36,0,0,1,484.55,47a23.37,23.37,0,0,1-7.26,2.09,58.91,58.91,0,0,1-7.69.52c-1.73,0-3.56-.06-5.48-.17a39.68,39.68,0,0,1-5.28-.65Z"/><path class="cls-1" d="M531.12,48.83l-6.59-18.52L518,48.83h-8.71L495.66.82H506l9.26,35.32,5.55-15.64L513.15.82h8.78l2.74,8.92L527.48.82h8.44L528.58,20l5.76,16.12L543.46.82h9.94l-13.57,48Z"/><path class="cls-1" d="M559.85,48.83V.82h9.74v48Z"/><path class="cls-1" d="M613,48.83V17.14L600.65,40.46l-12.2-23.32V48.83h-9.06V.82h10.29l11.11,21.47L611.9.82h9.94v48Z"/><path class="cls-1" d="M665.11,48.83V17.14L652.77,40.46,640.56,17.14V48.83h-9V.82H641.8l11.11,21.47L664,.82H674v48Z"/><path class="cls-1" d="M683.76,48.83V.82h32V9H693.5v5.7h21.6v7.74H693.5V40.67h22.36v8.16Z"/><path class="cls-1" d="M748.43,48.83c-.14-2.47-.34-4.64-.62-6.52a33.94,33.94,0,0,0-1-4.9,17.91,17.91,0,0,0-1.47-3.64A15.59,15.59,0,0,0,743.36,31h-1.17a18.32,18.32,0,0,1-4.7-.55A12.92,12.92,0,0,1,734,28.94V48.83h-9.74V17.08a23.15,23.15,0,0,1,1-6.83,13.72,13.72,0,0,1,3.06-5.38,14.29,14.29,0,0,1,5.41-3.57A22.57,22.57,0,0,1,741.78,0a21.42,21.42,0,0,1,6.58,1,15.83,15.83,0,0,1,5.39,3,13.67,13.67,0,0,1,3.6,4.87,16.78,16.78,0,0,1,1.3,6.83,14.57,14.57,0,0,1-2,7.3,15.21,15.21,0,0,1-5.45,5.59,20.42,20.42,0,0,1,2.33,2.26,12.84,12.84,0,0,1,2.13,3.57,29.76,29.76,0,0,1,1.65,5.72,65.57,65.57,0,0,1,1,8.75ZM734,20a10.31,10.31,0,0,0,8.23,4,6.45,6.45,0,0,0,5.28-2.33,9.18,9.18,0,0,0,1.92-6q0-4.26-2.09-6.24a7.3,7.3,0,0,0-5.25-2,7.7,7.7,0,0,0-6,2.29c-1.42,1.54-2.13,4-2.13,7.38Z"/><path class="cls-1" d="M765.37,40.6a30.45,30.45,0,0,0,4.9.75q2.72.21,5.8.21,6.64,0,10-1.48a5.37,5.37,0,0,0,3.36-5.38,4.15,4.15,0,0,0-1-2.81,9.46,9.46,0,0,0-2.57-2.06,26.29,26.29,0,0,0-3.77-1.64l-4.39-1.58q-2.26-.83-4.42-1.82a18.53,18.53,0,0,1-3.88-2.37,12.13,12.13,0,0,1-3-3.56,10.16,10.16,0,0,1-1.13-4.94,11.75,11.75,0,0,1,1.61-6.21,13.15,13.15,0,0,1,4.42-4.35A21.41,21.41,0,0,1,777.92.82,38.12,38.12,0,0,1,786.08,0c1.6,0,3.16.06,4.7.17a37.19,37.19,0,0,1,4.62.65V9a45.28,45.28,0,0,0-9-.89,26.47,26.47,0,0,0-8.84,1.2c-2.2.8-3.3,2.19-3.3,4.15a3.6,3.6,0,0,0,1.51,3,18.35,18.35,0,0,0,3.84,2.19c1.1.51,2.27,1,3.5,1.44s2.49.95,3.77,1.48,2.52,1.1,3.7,1.71A26,26,0,0,1,794,25.3a12.43,12.43,0,0,1,3.47,3.95,11.46,11.46,0,0,1,1.27,5.59,12.63,12.63,0,0,1-2.16,7.71A14.36,14.36,0,0,1,791.08,47a23.37,23.37,0,0,1-7.26,2.09,58.87,58.87,0,0,1-7.68.52c-1.74,0-3.57-.06-5.49-.17a39.68,39.68,0,0,1-5.28-.65Z"/><path class="cls-1" d="M811.79,49.65A4.73,4.73,0,0,1,808,48a6.06,6.06,0,0,1-1.44-4.08,5.79,5.79,0,0,1,1.44-4,4.88,4.88,0,0,1,3.84-1.61,4.79,4.79,0,0,1,3.77,1.61,5.79,5.79,0,0,1,1.44,4A6.06,6.06,0,0,1,815.63,48,4.8,4.8,0,0,1,811.79,49.65Zm-4.87-16.12V.82h9.74V33.53Z"/><path class="cls-1" d="M832.5,49.65A4.73,4.73,0,0,1,828.73,48a6.06,6.06,0,0,1-1.44-4.08,5.79,5.79,0,0,1,1.44-4,4.88,4.88,0,0,1,3.84-1.61,4.79,4.79,0,0,1,3.77,1.61,5.79,5.79,0,0,1,1.44,4A6.06,6.06,0,0,1,836.34,48,4.8,4.8,0,0,1,832.5,49.65Zm-4.87-16.12V.82h9.74V33.53Z"/></g></g></svg>
